X:1
T:Let Us Sing for Joy
T:Let Us Sing for Joy
T:Isaac Hickman Meredith
T:George Orlia Webster, 1906
T:Public Domain Courtesy of the Cyber Hymnal™
T:Public Domain Courtesy of the Cyber Hymnal™
C:Isaac Hickman Meredith
Z:Public Domain
Z:Courtesy of the Cyber Hymnal™
%%score ( 1 2 ) ( 3 4 )
L:1/8
Q:1/4=103
M:4/4
K:Bb
V:1 treble 
V:2 treble 
V:3 bass 
V:4 bass 
V:1
 [B,D]"^Soprano and Alto Duet"[CE] | [^C=E][DF][_EG][DF] [DB][DF][C=E][DF] | [EG]2 [EG]4 [Ac][GB] | %3
w: 1.~Day when|Heav’n and earth u- nite in songs of|glad- ness, Tri- umph|
w: 2.~Day when|from the tomb the Christ a- rose in|glo- ry, As was|
w: 3.~Day when|earth may ban- ish all its cares and|sad- ness, And up-|
 [FA]2 [FA]4 [Ge][_Ge] | [Fd]6 [B,D][CE] | [^C=E][DF][_EG][DF] [DB][DF][C=E][DF] | %6
w: tell- ing, o’er the|tomb; Day when|mourn- ing ones can ban- ish all their|
w: break- ing morn- ing|light, Day when|an- gels tell to men the won- drous|
w: rais- ing songs of|joy, Send a-|broad to all the world the East- er|
 [EG]2 [EG]4 [Ac][GB] | [FA]2 [FA]4 [EF][Ec] | B6 ||"^Refrain" [Fd][Bd] | %10
w: sad- ness, Songs up-|swell- ing, where was|gloom.||
w: sto- ry, Hope a-|wak- ing by His|might.|Let us|
w: glad- ness, Ev- er|prais- ing— best em-|ploy.||
 [Ae][ce] [Ge]2 [Ae][ce] [Ge]2 | [Fd][Bd][Gd][Bd] [Fd]2 [ce][Bd] | %12
w: ||
w: sing for joy, sing for joy,|On this hap- py day; Christ is|
w: ||
 [Be][Ae][Ae][Ae] [Ae]2 [df][ce] | [ce][Bd][Bd][Gd] [Fd]2 [Fd][Bd] | %14
w: ||
w: ris- en from the dead, He is|ris- en as He said; Let us|
w: ||
 [Ae][ce] [Ge]2 [Ae][ce] [Ge]2 | [Fd][Bd][Gd][Bd] [Fd]2 [Fd][^Fd] | %16
w: ||
w: sing for joy, sing for joy,|And His voice o- bey, Who the|
w: ||
 [Ge][Ge][ce][Be] [Af][Ff][G_f][Ae] | [FB-d]2 [GB-e]2 !fermata![FBd]2 |] %18
w: ||
w: hosts of light to vic- to- ry has|led. * *|
w: ||
V:2
 x2 | x8 | x8 | x8 | x8 | x8 | x8 | x8 | (D2 E2 D2) || x2 | x8 | x8 | x8 | x8 | x8 | x8 | x8 | %17
 x6 |] %18
V:3
 z2 | B,,F,B,F, B,,F,B,F, | (E,G,) (CG,E,G,)CG, | (F,,F,) (A,F,F,,F,)A,F, | (B,,F,B,F,B,,F,)B,F, | %5
 B,,F,B,F, B,,F,B,F, | (E,G,) (CG,E,G,)CG, | (F,,F,) (A,F,F,,F,)A,F, | (F,2 G,2 F,2) || z2 | %10
 F,,2 [F,A,E]2 F,,2 [F,A,E]2 | B,,2 [F,B,D]2 B,,2 [F,B,D]2 | F,,2 [F,A,E]2 F,,2 [F,A,E]2 | %13
 B,,2 [F,B,D]2 B,,2 [F,B,D]2 | F,,2 [F,A,E]2 F,,2 [F,A,E]2 | B,,2 [F,B,D]2 B,,2 [F,B,D]2 | %16
 E,,2 [G,B,E]2 F,,2 [F,A,E]2 | [B,,B,]4- !fermata![B,,B,]2 |] %18
V:4
 x2 | x8 | x8 | x8 | x8 | x8 | x8 | x8 | B,,6 || x2 | x8 | x8 | x8 | x8 | x8 | x8 | x8 | x6 |] %18

